Public/images/logo-tiny.svg

<svg height="512" viewBox="0 0 512 512" width="512" xmlns="http://www.w3.org/2000/svg" xmlns:xlink="http://www.w3.org/1999/xlink"><filter id="a" height="110.3%" width="110.3%" x="-5.1%" y="-5.1%"><feOffset dx="0" dy="3" in="SourceAlpha" result="shadowOffsetOuter1"/><feGaussianBlur in="shadowOffsetOuter1" result="shadowBlurOuter1" stdDeviation="5"/><feColorMatrix in="shadowBlurOuter1" result="shadowMatrixOuter1" type="matrix" values="0 0 0 0 0   0 0 0 0 0   0 0 0 0 0  0 0 0 0.303840691 0"/><feMerge><feMergeNode in="shadowMatrixOuter1"/><feMergeNode in="SourceGraphic"/></feMerge></filter><linearGradient id="b"><stop offset="0" stop-color="#f88a36"/><stop offset="1" stop-color="#fd2020"/></linearGradient><linearGradient id="c" x1="100%" x2="0%" xlink:href="#b" y1="0%" y2="100%"/><linearGradient id="d" x1="50%" x2="50%" xlink:href="#b" y1="0%" y2="100%"/><g fill="none" fill-rule="evenodd"><g fill="#fdfafa" filter="url(#a)" stroke="url(#c)" stroke-width="10" transform="translate(8 8)"><path d="m78 78h340v340h-340z" transform="matrix(.70710678 .70710678 -.70710678 .70710678 248 -102.724963)"/><path d="m78 78h340v340h-340z"/></g><path d="m308.818078 342.501953c-29.330666 17.009804-69.659547 18.757473-110.233531 1.299711-32.851981-14.031826-60.110584-38.59383-77.584547-66.657482 8.387553 7.015913 18.172821 12.631167 28.656947 17.539782 41.901312 19.716482 83.793825 18.366297 113.275324.050474-.018854-.018927-.031423-.031546-.043993-.050474-41.937763-32.278247-77.584547-74.380033-104.143663-108.759268-5.594006-5.613992-9.787782-12.631167-13.981559-18.94612 32.151866 29.47062 83.177925 66.657482 101.346975 77.187661-38.437188-40.701128-72.68877-91.219487-71.293568-89.818828 60.810698 61.748867 117.429506 96.834741 117.429506 96.834741 1.872839 1.059958 3.318318 1.943256 4.480987 2.731915 1.225515-3.1294 2.300198-6.378676 3.205194-9.747828 9.785268-35.786204-1.395202-76.487331-25.861516-110.166237 56.612523 34.38239 90.166504 98.935729 76.18306 152.968353-.364512 1.457442-.760448 2.895957-1.187807 4.309234.163402.195588.326804.397484.490206.60569 27.954319 35.085874 20.268138 72.272736 16.773848 65.256823-15.164966-29.792392-43.238694-20.6818-57.511234-14.637516z" fill="url(#d)" fill-rule="nonzero"/></g></svg>

<?xml version="1.0" encoding="UTF-8"?>
<svg width="512px" height="512px" viewBox="0 0 512 512" version="1.1" xmlns="http://www.w3.org/2000/svg" xmlns:xlink="http://www.w3.org/1999/xlink">
    <title>Logo Tiny</title>
    <defs>
        <filter x="-5.1%" y="-5.1%" width="110.3%" height="110.3%" filterUnits="objectBoundingBox" id="filter-1">
            <feOffset dx="0" dy="3" in="SourceAlpha" result="shadowOffsetOuter1"></feOffset>
            <feGaussianBlur stdDeviation="5" in="shadowOffsetOuter1" result="shadowBlurOuter1"></feGaussianBlur>
            <feColorMatrix values="0 0 0 0 0   0 0 0 0 0   0 0 0 0 0  0 0 0 0.303840691 0" type="matrix" in="shadowBlurOuter1" result="shadowMatrixOuter1"></feColorMatrix>
            <feMerge>
                <feMergeNode in="shadowMatrixOuter1"></feMergeNode>
                <feMergeNode in="SourceGraphic"></feMergeNode>
            </feMerge>
        </filter>
        <linearGradient x1="100%" y1="0%" x2="0%" y2="100%" id="linearGradient-2">
            <stop stop-color="#F88A36" offset="0%"></stop>
            <stop stop-color="#FD2020" offset="100%"></stop>
        </linearGradient>
        <linearGradient x1="50%" y1="0%" x2="50%" y2="100%" id="linearGradient-3">
            <stop stop-color="#F88A36" offset="0%"></stop>
            <stop stop-color="#FD2020" offset="100%"></stop>
        </linearGradient>
    </defs>
    <g id="Logo-Tiny" stroke="none" stroke-width="1" fill="none" fill-rule="evenodd">
        <g id="Boxes" filter="url(#filter-1)" transform="translate(8.000000, 8.000000)" fill="#FDFAFA" stroke="url(#linearGradient-2)" stroke-width="10">
            <rect id="Box-4" transform="translate(248.000000, 248.000000) rotate(-315.000000) translate(-248.000000, -248.000000) " x="78" y="78" width="340" height="340"></rect>
            <rect id="Box-1-(Frontmost)" x="78" y="78" width="340" height="340"></rect>
        </g>
        <path d="M308.818078,342.501953 C279.487412,359.511757 239.158531,361.259426 198.584547,343.801664 C165.732566,329.769838 138.473963,305.207834 121,277.144182 C129.387553,284.160095 139.172821,289.775349 149.656947,294.683964 C191.558259,314.400446 233.450772,313.050261 262.932271,294.734438 C262.913417,294.715511 262.900848,294.702892 262.888278,294.683964 C220.950515,262.405717 185.303731,220.303931 158.744615,185.924696 C153.150609,180.310704 148.956833,173.293529 144.763056,166.978576 C176.914922,196.449196 227.940981,233.636058 246.110031,244.166237 C207.672843,203.465109 173.421261,152.94675 174.816463,154.347409 C235.627161,216.096276 292.245969,251.18215 292.245969,251.18215 C294.118808,252.242108 295.564287,253.125406 296.726956,253.914065 C297.952471,250.784665 299.027154,247.535389 299.93215,244.166237 C309.717418,208.380033 298.536948,167.678906 274.070634,134 C330.683157,168.38239 364.237138,232.935729 350.253694,286.968353 C349.889182,288.425795 349.493246,289.86431 349.065887,291.277587 C349.229289,291.473175 349.392691,291.675071 349.556093,291.883277 C377.510412,326.969151 369.824231,364.156013 366.329941,357.1401 C351.164975,327.347708 323.091247,336.4583 308.818707,342.502584 L308.818078,342.501953 Z" id="Swift-Bird" fill="url(#linearGradient-3)" fill-rule="nonzero"></path>
    </g>
</svg>
